X:314
T:Untitled RH.314
R:Country Dance
S:Rev.R.Harrison’s MS,c1815,Cumbria
N:polka. PJH.
O:England
A:Temple Sowerby,Cumbria
Z:vmp.Simon Wilson. Review PJH, 2008.
M:2/4
L:1/8
Q:1/4=100
K:D
A|d/e/d/c/ df|dfd2|c/d/e/c/ dA|c/d/e/c/ fd|!
d/e/d/c/ df|dfd2|c/d/e/c/ dA|c/d/e/c/d2:|!
|:a/b/a/g/ fa|fa gf|a/b/a/g/ fa|gef2|!
a/b/a/g/ fa|fagf|a/b/a/g/ fa|ged2:|

